!! J.S. Bach "Menuet II" from Partita No. 3, solo violin, BWV 1006.
!! From 'Neue Ausgabe Saemtlicher Werke' Serie VI: Kammermusikwerke,
!! Band 1 ('Werke fuer Violine') Baerenreiter Kassel (Basel) 1958; p.61
!! This work has been error-checked using the double-entry method.
!! NOTE: The repeats at bar 16 and at the end of the movement have
!!       been expanded in this encoding.
!! NOTE: The 'monophonic' score has been expanded to a three-voice
!!       format to simplify the encoding of multiple stops.
**kern	**kern	**kern
*M3/4	*M3/4	*M3/4
=1	=1	=1
2.r	4g#	[2.b
.	8a	.
.	8g#	.
.	8f#	.
.	8e	.
=2	=2	=2
2.r	8f#	2.b_
.	8g#	.
.	4g#	.
.	4a	.
=3	=3	=3
2.r	8g#	2.b]
.	8f#	.
.	8a	.
.	8g#	.
.	8f#	.
.	8e	.
=4	=4	=4
2.r	8d#	2.a
.	8e	.
.	4f#	.
.	4B	.
=5	=5	=5
2.r	2.r	8e
.	.	8g#
.	.	8g#
.	.	8b
.	.	8b
.	.	8ee
=6	=6	=6
2.r	2.r	{8dd#
.	.	8b}
.	.	{8b
.	.	8dd#}
.	.	{8dd#
.	.	8ff#}
=7	=7	=7
2.r	2.r	8ff#
.	.	8gg#
.	.	8aa
.	.	8ff#
.	.	4bb
=8	=8	=8
2.r	2.r	{8aa
.	.	8gg#}
.	.	{8aa
.	.	8gg#}
.	.	{8ff#
.	.	8ee}
=9	=9	=9
2.r	4g#	[2.b
.	8a	.
.	8g#	.
.	8f#	.
.	8e	.
=10	=10	=10
2.r	8f#	2.b]
.	8g#	.
.	4g#	.
.	4a	.
=11	=11	=11
2.r	{8g#	[2.ee
.	8e}	.
.	{8e	.
.	8g#}	.
.	{8g#	.
.	8b}	.
=12	=12	=12
2.r	8a#	2.ee]
.	8b	.
.	4cc#	.
.	4f#	.
=13	=13	=13
2.r	2.r	8b
.	.	8dd#
.	.	8dd#
.	.	8ff#
.	.	8ff#
.	.	8bb
=14	=14	=14
2.r	2.r	{8cc#
.	.	8dd#
.	.	8ee}
.	.	8gg#
.	.	8a#
.	.	8ff#
=15	=15	=15
2.r	2.r	{8ee
.	.	8dd#}
.	.	{8cc#
.	.	8b}
.	.	8f#
.	.	8a#
=16	=16	=16
2.r	2.r	2.B
=17	=17	=17
2.r	4g#	[2.b
.	8a	.
.	8g#	.
.	8f#	.
.	8e	.
=18	=18	=18
2.r	8f#	2.b_
.	8g#	.
.	4g#	.
.	4a	.
=19	=19	=19
2.r	8g#	2.b]
.	8f#	.
.	8a	.
.	8g#	.
.	8f#	.
.	8e	.
=20	=20	=20
2.r	8d#	2.a
.	8e	.
.	4f#	.
.	4B	.
=21	=21	=21
2.r	2.r	8e
.	.	8g#
.	.	8g#
.	.	8b
.	.	8b
.	.	8ee
=22	=22	=22
2.r	2.r	{8dd#
.	.	8b}
.	.	{8b
.	.	8dd#}
.	.	{8dd#
.	.	8ff#}
=23	=23	=23
2.r	2.r	8ff#
.	.	8gg#
.	.	8aa
.	.	8ff#
.	.	4bb
=24	=24	=24
2.r	2.r	{8aa
.	.	8gg#}
.	.	{8aa
.	.	8gg#}
.	.	{8ff#
.	.	8ee}
=25	=25	=25
2.r	4g#	[2.b
.	8a	.
.	8g#	.
.	8f#	.
.	8e	.
=26	=26	=26
2.r	8f#	2.b]
.	8g#	.
.	4g#	.
.	4a	.
=27	=27	=27
2.r	{8g#	[2.ee
.	8e}	.
.	{8e	.
.	8g#}	.
.	{8g#	.
.	8b}	.
=28	=28	=28
2.r	8a#	2.ee]
.	8b	.
.	4cc#	.
.	4f#	.
=29	=29	=29
2.r	2.r	8b
.	.	8dd#
.	.	8dd#
.	.	8ff#
.	.	8ff#
.	.	8bb
=30	=30	=30
2.r	2.r	{8cc#
.	.	8dd#
.	.	8ee}
.	.	8gg#
.	.	8a#
.	.	8ff#
=31	=31	=31
2.r	2.r	{8ee
.	.	8dd#}
.	.	{8cc#
.	.	8b}
.	.	8f#
.	.	8a#
=32	=32	=32
2.r	2.r	2.B
=33	=33	=33
2.r	4a	4dd#
.	2r	{8ee
.	.	8dd#}
.	.	{8cc#
.	.	8b}
=34	=34	=34
4g#	4b	8ee
.	.	8ff#
2r	4ddn	8gg#
.	.	8aa
.	4r	8bb
.	.	8gg#
=35	=35	=35
2.r	4b	{8ff#
.	.	8ee#
.	2r	8ff#}
.	.	8ee
.	.	8dd#
.	.	8cc#
=36	=36	=36
2.r	4a	{8ff#
.	.	8gg#
.	2r	8aa}
.	.	8cc#
.	.	4f#
=37	=37	=37
2.r	2.r	{8e#
.	.	8cc#
.	.	8bb}
.	.	8gg#
.	.	8aa
.	.	8ff#
=38	=38	=38
2.r	2.r	8gg#
.	.	8cc#
.	.	8ddn
.	.	8b
.	.	{8e#
.	.	8cc#
=39	=39	=39
2.r	2.r	8bb}
.	.	8gg#
.	.	8aa
.	.	8ff#
.	.	8cc#
.	.	8ee#
=40	=40	=40
2.r	2.r	{8ff#
.	.	8cc#
.	.	8f#}
.	.	8cc#
.	.	8ff#
.	.	8gg#
=41	=41	=41
2.r	4dd#	4aa
.	2r	8bb
.	.	8aa
.	.	8gg#
.	.	8ff#
=42	=42	=42
2.r	4ee	{8gg#
.	.	8aa
.	2r	8bb}
.	.	8ddn
.	.	8g#
.	.	8dd
=43	=43	=43
2.r	2.r	8cc#
.	.	8ee
.	.	8aa
.	.	8ff#
.	.	8gg#
.	.	8ee
=44	=44	=44
2.r	2.r	{8dd#
.	.	8cc#}
.	.	{8ee
.	.	8dd#}
.	.	{8cc#
.	.	8b}
=45	=45	=45
4e	4b	4gg#
2r	2r	{8aa
.	.	8gg#
.	.	8ff#
.	.	8ee}
=46	=46	=46
2.r	8a	8ff#
.	8r	8dd#
.	2a	2bb
=47	=47	=47
2.r	8g#	2.r
.	8b	.
.	8cc#	.
.	8a	.
.	8f#	.
.	8dd#	.
=48	=48	=48
2.r	2.ee	2.r
=49	=49	=49
2.r	4a	4dd#
.	2r	{8ee
.	.	8dd#}
.	.	{8cc#
.	.	8b}
=50	=50	=50
4g#	4b	8ee
.	.	8ff#
2r	4ddn	8gg#
.	.	8aa
.	4r	8bb
.	.	8gg#
=51	=51	=51
2.r	4b	{8ff#
.	.	8ee#
.	2r	8ff#}
.	.	8ee
.	.	8dd#
.	.	8cc#
=52	=52	=52
2.r	4a	{8ff#
.	.	8gg#
.	2r	8aa}
.	.	8cc#
.	.	4f#
=53	=53	=53
2.r	2.r	{8e#
.	.	8cc#
.	.	8bb}
.	.	8gg#
.	.	8aa
.	.	8ff#
=54	=54	=54
2.r	2.r	8gg#
.	.	8cc#
.	.	8ddn
.	.	8b
.	.	{8e#
.	.	8cc#
=55	=55	=55
2.r	2.r	8bb}
.	.	8gg#
.	.	8aa
.	.	8ff#
.	.	8cc#
.	.	8ee#
=56	=56	=56
2.r	2.r	{8ff#
.	.	8cc#
.	.	8f#}
.	.	8cc#
.	.	8ff#
.	.	8gg#
=57	=57	=57
2.r	4dd#	4aa
.	2r	8bb
.	.	8aa
.	.	8gg#
.	.	8ff#
=58	=58	=58
2.r	4ee	{8gg#
.	.	8aa
.	2r	8bb}
.	.	8ddn
.	.	8g#
.	.	8dd
=59	=59	=59
2.r	2.r	8cc#
.	.	8ee
.	.	8aa
.	.	8ff#
.	.	8gg#
.	.	8ee
=60	=60	=60
2.r	2.r	{8dd#
.	.	8cc#}
.	.	{8ee
.	.	8dd#}
.	.	{8cc#
.	.	8b}
=61	=61	=61
4e	4b	4gg#
2r	2r	{8aa
.	.	8gg#
.	.	8ff#
.	.	8ee}
=62	=62	=62
2.r	8a	8ff#
.	8r	8dd#
.	2a	2bb
=63	=63	=63
2.r	8g#	2.r
.	8b	.
.	8cc#	.
.	8a	.
.	8f#	.
.	8dd#	.
=64	=64	=64
2.r	2.ee	2.r
==	==	==
*-	*-	*-
